!!!!SEGMENT: pl-cz--d-ii-29--002_elsner-jozef--msza-f-op-35-gloria.krn
!!!id: 18xx:180
!!!COM: Elsner, Józef
!!!COM-rism: pe30000957
!!!CDT: 1769/06/01-1854/04/18
!!!CNT: Polish
!!!OTL: Msza F op. 35 - Gloria
!!!PDT:
!!!SMS-siglum: PL-CZ
!!!SMS-shelfmark: D II-29
!!!NIFC-rismID:
!!!URL-scan: http://repozytorium.nifc.pl/skany/pl-cz-nut--dii-29
!!!ONB-nifc: UWAGA: części Mszy: Kyrie, Gloria, Graduale, Credo, Offertorium, Sanctus, Agnus Dei
**kern	**kern	**kern	**text	**dynam	**text	**text	**kern	**text	**dynam	**kern	**text	**dynam	**kern	**text	**dynam
*part5	*part5	*part4	*part4	*	*part4	*part4	*part3	*part3	*	*part2	*part2	*	*part1	*part1	*
*staff6	*staff5	*staff4	*staff4	*	*staff4	*staff4	*staff3	*staff3	*	*staff2	*staff2	*	*staff1	*staff1	*
*I"Organ	*	*I"Basso	*	*	*	*	*I"Tenor	*	*	*I"Alto	*	*	*I"Canto	*	*
*I'Org.	*	*I'B.	*	*	*	*	*I'T.	*	*	*I'A.	*	*	*I'V.	*	*
*group2	*group2	*group1	*	*	*	*	*group1	*	*	*group1	*	*	*group1	*	*
*clefF4	*clefG2	*clefF4	*	*	*	*	*clefC4	*	*	*clefC3	*	*	*clefC1	*	*
*k[]	*k[]	*k[]	*	*	*	*	*k[]	*	*	*k[]	*	*	*k[]	*	*
*M3/4	*M3/4	*M3/4	*	*	*	*	*M3/4	*	*	*M3/4	*	*	*M3/4	*	*
=1	=1	=1	=1	=1	=1	=1	=1	=1	=1	=1	=1	=1	=1	=1	=1
!	!LO:TX:a:t=Allo Moderato	!	!	!	!	!	!	!	!	!	!	!	!LO:TX:a:t=Allo Moderato	!	!
2.C/	(2.e/ 2.g 2.cc	2C/	1)Chwa-	.	2)Przed-	3)Je-	2G/	1)Chwa-	.	2e\	1)Chwa-	.	2cc\	1)Chwa-	.
.	.	4C/	-łę	.	-nim	-mu	4G/	-łę	.	4e\	-łę	.	4cc\	-łę	.
=2	=2	=2	=2	=2	=2	=2	=2	=2	=2	=2	=2	=2	=2	=2	=2
2.C/	(2.e/) 2.g 2.cc	2C/	Pa-	.	Ko-	słoń-	2G/	Pa-	.	2e\	Pa-	.	2cc\	Pa-	.
.	.	4C/	-na	.	-ło	-ce	4G/	-na	.	4e\	-na	.	4cc\	-na	.
=3	=3	=3	=3	=3	=3	=3	=3	=3	=3	=3	=3	=3	=3	=3	=3
2.C/	2.e/) 2.g 2.cc	2C/	wdzię-	.	czas	whoł-	2G/	wdzię-	.	2e\	wdzię-	.	2cc\	wdzię-	.
.	.	4C/	-cznem	.	za-	-dzie	4G/	-cznem	.	4e\	-cznem	.	4cc\	-cznem	.
=4	=4	=4	=4	=4	=4	=4	=4	=4	=4	=4	=4	=4	=4	=4	=4
2BB/	2f/ 2g 2dd	2BB/	pie-	>	-trzy-	swie-	2G/	pie-	>	2f\	pie-	>	2dd\	pie-	>
.	.	.	.	]	.	.	.	.	]	.	.	]	.	.	]
4C/	4e/ 4g 4cc	4C/	-niem	.	-ma	-ci	4G/	-niem	.	4e\	-niem	.	4cc\	-niem	.
=5	=5	=5	=5	=5	=5	=5	=5	=5	=5	=5	=5	=5	=5	=5	=5
2.C/	2.e/ 2.g 2.cc	4C/	Lu-	.	Pa-	Wia-	4G/	Lu-	.	4e\	Lu-	.	4cc\	Lu-	.
.	.	4C/	-dy	.	-dną	-try	4G/	-dy	.	4e\	-dy	.	4cc\	-dy	.
.	.	4C/	A-	.	te	wy-	4G/	A-	.	4e\	A-	.	4cc\	A-	.
=6	=6	=6	=6	=6	=6	=6	=6	=6	=6	=6	=6	=6	=6	=6	=6
2C/	4e/ 4g 4cc	4C/	-nio-	.	świa-	-ro-	4G/	-nio-	.	4e\	-nio-	.	4cc\	-nio-	.
.	4d/ 4f 4g 4b	4C/	-ły	.	-ty	-ki	4F/	-ły	.	4d\	-ły	.	4b\	-ły	.
4ryy	4e/ 4g 4cc	4C/	roz-	.	i	roz-	4E/	roz-	.	4c\	roz-	.	4cc\	roz-	.
=7	=7	=7	=7	=7	=7	=7	=7	=7	=7	=7	=7	=7	=7	=7	=7
2FF/	2.c/ 2.f 2.a	2FF/	-nie-	.	Słoń-	-no-	2.F/	-nie-	.	2.c\	-nie-	.	2.a\	-nie-	.
4AA/	.	4AA/	.	.	.	.	.	.	.	.	.	.	.	.	.
=8	=8	=8	=8	=8	=8	=8	=8	=8	=8	=8	=8	=8	=8	=8	=8
2C\	2c/ 2e 2g	2C/	-scie	.	-ca	-szą	2E/	-scie	.	2c\	-scie	.	2g\	-scie	.
4ryy	(8f/L 8a	4r	.	.	.	.	4r	.	.	4r	.	.	4r	.	.
.	8d/J) 8b	.	.	.	.	.	.	.	.	.	.	.	.	.	.
!!LO:LB:g=original
=9	=9	=9	=9	=9	=9	=9	=9	=9	=9	=9	=9	=9	=9	=9	=9
2.C/	2.e/ 2.g 2.cc	2C/	O-	.	Je-	Lu-	2G/	O-	.	2e\	O-	.	2cc\	O-	.
.	.	4C/	-ży	.	-mu	-dy	4G/	-ży	.	4e\	-ży	.	4cc\	-ży	.
=10	=10	=10	=10	=10	=10	=10	=10	=10	=10	=10	=10	=10	=10	=10	=10
2.C/	2.e/ 2.g 2.cc	2C/	wie-	.	tyl-	ziem-	2G/	wie-	.	2e\	wie-	.	2cc\	wie-	.
.	.	4C/	-ni	.	-ko	-skie	4G/	-ni	.	4e\	-ni	.	4cc\	-ni	.
=11	=11	=11	=11	=11	=11	=11	=11	=11	=11	=11	=11	=11	=11	=11	=11
2.C/	2.e/ 2.g 2.cc	2C/	Je-	.	gra-	Je-	2G/	Je-	.	2e\	Je-	.	2cc\	Je-	.
.	.	4C/	-go	.	-nic	-go	4G/	-go	.	4e\	-go	.	4cc\	-go	.
=12	=12	=12	=12	=12	=12	=12	=12	=12	=12	=12	=12	=12	=12	=12	=12
2BB/	2f/ 2g 2dd	2BB/	tchnie-	>	nie-	dzie-	2G/	tchnie-	>	2f\	tchnie-	>	2dd\	tchnie-	>
.	.	.	.	]	.	.	.	.	]	.	.	]	.	.	]
4C/	4e/ 4g 4cc	4C/	-niem	.	-ma	-ci	4G/	-niem	.	4e\	-niem	.	4cc\	-niem	.
=13	=13	=13	=13	=13	=13	=13	=13	=13	=13	=13	=13	=13	=13	=13	=13
2.AA\ 2.A	2.e/ 2.a 2.cc	4AA/	Wnim	.	Je-	Cno-	4A\	Wnim	.	4e\	Wnim	.	4cc\	Wnim	.
.	.	4A\	i	.	-go	-ta	4A\	i	.	4e\	i	.	4cc\	i	.
.	.	4A\	dla	.	iest	ku-	4A\	dla	.	4e\	dla	.	4cc\	dla	.
=14	=14	=14	=14	=14	=14	=14	=14	=14	=14	=14	=14	=14	=14	=14	=14
8D\L	4f/ 4a 4ff	8D\L	nie-	.	wiecz-	-nie-	4A\	nie-	.	4f\	nie-	.	4ff\	nie-	.
8E\J	.	8E\J	-go	.	.	-mu	.	.	.	.	.	.	.	.	.
4F\	4d/ 4f 4a	4F\	ie-	.	-ność	sie	4A\	-go	.	4d\	-go	.	4a\	-go	.
4G\	4d/ 4f 4b	4G\	.	.	bez	.	4G/	ie-	.	4d\	ie-	.	4b\	ie-	.
=15	=15	=15	=15	=15	=15	=15	=15	=15	=15	=15	=15	=15	=15	=15	=15
2.C/	2.e/ 2.g 2.cc	2.C/	-ste-	.	koń-	wzno-	2.G/	-ste-	.	2.e\	-ste-	.	2.cc\	-ste-	.
=16	=16	=16	=16	=16	=16	=16	=16	=16	=16	=16	=16	=16	=16	=16	=16
(2C/	(2c/ 2g 2cc	2C/	-ście	.	-ca	-sza	2G/	-ście	.	2e\	-ście	.	2cc\	-ście	.
!	!LO:TX:a:t=Problem&colon; cyfry 2,3 pod łukiem	!	!	!	!	!	!	!	!	!	!	!	!	!	!
4G\	4d/ 4g 4b	4r	.	.	.	.	4r	.	.	4r	.	.	4r	.	.
==17	==17	==17	==17	==17	==17	==17	==17	==17	==17	==17	==17	==17	==17	==17	==17
!	!LO:TX:a:t=fine	!	!	!	!	!	!	!	!	!	!	!	!	!	!
2C/)	2e/) 2g 2cc	2.ryy	.	.	.	.	2.ryy	.	.	2.ryy	.	.	2.ryy	.	.
4r	4r	.	.	.	.	.	.	.	.	.	.	.	.	.	.
==	==	==	==	==	==	===	==	==	==	==	==	==	==	==	==
*-	*-	*-	*-	*-	*-	*-	*-	*-	*-	*-	*-	*-	*-	*-	*-
!!!system-decoration: [g1]{g2}
!!!ENC: Anna Matuszewska
!!!END: 2020-04-01
